www/assets/icons/electric_moped.svg

<svg xmlns="http://www.w3.org/2000/svg" width="24" height="24" viewBox="0 0 24 24" fill='currentColor'><path d="M19 4c0-1.1-.9-2-2-2h-3v2h3v2.65L13.52 11H10V6H6c-2.21 0-4 1.79-4 4v3h2c0 1.66 1.34 3 3 3s3-1.34 3-3h4.48L19 7.35zM7 14c-.55 0-1-.45-1-1h2c0 .55-.45 1-1 1"/><path d="M10 3H5v2h5zm9 7c-1.66 0-3 1.34-3 3s1.34 3 3 3 3-1.34 3-3-1.34-3-3-3m0 4c-.55 0-1-.45-1-1s.45-1 1-1 1 .45 1 1-.45 1-1 1M7 19h4v-2l6 3h-4v2z"/></svg>

<svg width="24" height="24" viewBox="0 0 24 24" xmlns="http://www.w3.org/2000/svg" fill='currentColor'><path d="M19 4C19 2.9 18.1 2 17 2H14V4H17V6.65L13.52 11H10V6H6C3.79 6 2 7.79 2 10V13H4C4 14.66 5.34 16 7 16C8.66 16 10 14.66 10 13H14.48L19 7.35V4ZM7 14C6.45 14 6 13.55 6 13H8C8 13.55 7.55 14 7 14Z"/><path d="M10 3H5V5H10V3Z"/><path d="M19 10C17.34 10 16 11.34 16 13C16 14.66 17.34 16 19 16C20.66 16 22 14.66 22 13C22 11.34 20.66 10 19 10ZM19 14C18.45 14 18 13.55 18 13C18 12.45 18.45 12 19 12C19.55 12 20 12.45 20 13C20 13.55 19.55 14 19 14Z"/><path d="M7 19H11V17L17 20H13V22L7 19Z"/></svg>
